assets/icons/close-circ-fill.svg

<?xml version="1.0" encoding="UTF-8"?>
<svg width="24px" height="24px" viewBox="0 0 24 24" version="1.1" xmlns="http://www.w3.org/2000/svg" xmlns:xlink="http://www.w3.org/1999/xlink">
    <title>VW/Icons/close-circ-fill</title>
    <defs>
        <path d="M11.9999999,-5.00000006e-08 C5.39999997,-5.00000006e-08 -5.00000006e-08,5.39999997 -5.00000006e-08,11.9999999 C-5.00000006e-08,18.6 5.39999997,23.9999999 11.9999999,23.9999999 C18.6,23.9999999 23.9999999,18.6 23.9999999,11.9999999 C23.9999999,5.39999997 18.6,-5.00000006e-08 11.9999999,-5.00000006e-08 Z M17.55,16.2 L16.2,17.55 L12,13.35 L7.79999998,17.55 L6.44999998,16.2 L10.65,12 L6.44999998,7.79999998 L7.79999998,6.44999998 L12,10.65 L16.2,6.44999998 L17.55,7.79999998 L13.35,12 L17.55,16.2 Z" id="path-1"></path>
    </defs>
    <g id="VW/Icons/close-circ-fill" stroke="none" stroke-width="1" fill="none" fill-rule="evenodd">
        <mask id="mask-2" fill="white">
            <use xlink:href="#path-1"></use>
        </mask>
        <g fill-rule="nonzero"></g>
        <g id="Group" mask="url(#mask-2)" fill="#000000">
            <g id="🎨-color">
                <rect id="Swatch" x="0" y="0" width="24" height="24"></rect>
            </g>
        </g>
    </g>
</svg>

<svg
    xmlns="http://www.w3.org/2000/svg"    
    x="0px"
    y="0px"
    viewBox="0 0 24 24"
    aria-labelledby="chevron down"
    role="presentation"
  >
    <title  lang="en">chevron down</title>

    <g fill="currentColor">
	<path id="path-1_00000134226549546943854610000017705715172821330086_" d="M12,0C5.4,0,0,5.4,0,12s5.4,12,12,12s12-5.4,12-12
		S18.6,0,12,0z M17.5,16.2l-1.3,1.3L12,13.4l-4.2,4.2l-1.4-1.3l4.2-4.2L6.4,7.8l1.4-1.4l4.2,4.2l4.2-4.2l1.3,1.4L13.4,12L17.5,16.2z
		"/>
</g>
</svg>
